img/card6.svg

<svg class="ui-homes-icon ui-homes-icon--da-protected-buy font-color--HOME-DA-NEW-PROTECTED-BUY" width="100%" height="100%" viewBox="0 0 100 100" fill="none" xmlns="http://www.w3.org/2000/svg"><circle cx="53" cy="53" r="45.5403" fill="#EEEEEE"></circle><path fill-rule="evenodd" clip-rule="evenodd" d="M15.338 81.7901C14.6132 81.7901 14.0255 81.2025 14.0255 80.4776V25.6589C14.0255 24.934 14.6132 24.3464 15.338 24.3464H26.939H32.6373H89.3047C90.0295 24.3464 90.6172 24.934 90.6172 25.6589V80.4776C90.6172 81.2025 90.0295 81.7901 89.3047 81.7901H15.338Z" fill="white"></path><mask id="path-3-inside-1_562_4400" fill="white"><path fill-rule="evenodd" clip-rule="evenodd" d="M64.4518 49.4178V24.2458H40.1319V32.4242V49.4178L46.2882 43.4529L52.2337 49.4178L58.4925 43.4529L64.4518 49.4178ZM21.5022 71.6194H37.7468V61.1966H21.5022V71.6194Z"></path></mask><path fill-rule="evenodd" clip-rule="evenodd" d="M64.4518 49.4178V24.2458H40.1319V32.4242V49.4178L46.2882 43.4529L52.2337 49.4178L58.4925 43.4529L64.4518 49.4178ZM21.5022 71.6194H37.7468V61.1966H21.5022V71.6194Z" fill="#FFE600"></path><path d="M64.4518 24.2458H68.3893V20.3083H64.4518V24.2458ZM64.4518 49.4178L61.6663 52.2007L68.3893 58.9301V49.4178H64.4518ZM40.1319 24.2458V20.3083H36.1944V24.2458H40.1319ZM40.1319 49.4178H36.1944V58.7155L42.8718 52.2457L40.1319 49.4178ZM46.2882 43.4529L49.077 40.6732L46.3364 37.9237L43.5483 40.6251L46.2882 43.4529ZM52.2337 49.4178L49.4449 52.1975L52.163 54.9245L54.9501 52.2682L52.2337 49.4178ZM58.4925 43.4529L61.2781 40.67L58.56 37.9493L55.776 40.6025L58.4925 43.4529ZM37.7468 71.6194V75.5569H41.6843V71.6194H37.7468ZM21.5022 71.6194H17.5647V75.5569H21.5022V71.6194ZM37.7468 61.1966H41.6843V57.2591H37.7468V61.1966ZM21.5022 61.1966V57.2591H17.5647V61.1966H21.5022ZM60.5143 24.2458V49.4178H68.3893V24.2458H60.5143ZM40.1319 28.1833H64.4518V20.3083H40.1319V28.1833ZM44.0694 32.4242V24.2458H36.1944V32.4242H44.0694ZM44.0694 49.4178V32.4242H36.1944V49.4178H44.0694ZM43.5483 40.6251L37.3919 46.59L42.8718 52.2457L49.0281 46.2808L43.5483 40.6251ZM55.0224 46.6381L49.077 40.6732L43.4994 46.2326L49.4449 52.1975L55.0224 46.6381ZM55.776 40.6025L49.5172 46.5675L54.9501 52.2682L61.209 46.3033L55.776 40.6025ZM67.2373 46.6349L61.2781 40.67L55.707 46.2358L61.6663 52.2007L67.2373 46.6349ZM37.7468 67.6819H21.5022V75.5569H37.7468V67.6819ZM33.8093 61.1966V71.6194H41.6843V61.1966H33.8093ZM21.5022 65.1341H37.7468V57.2591H21.5022V65.1341ZM25.4397 71.6194V61.1966H17.5647V71.6194H25.4397Z" fill="white" mask="url(#path-3-inside-1_562_4400)"></path><rect x="37.7468" y="71.6194" width="16.2446" height="10.4228" transform="rotate(180 37.7468 71.6194)" stroke="#333333" stroke-width="1.96875"></rect><rect x="14.0255" y="76.2322" width="76.5815" height="5.52918" fill="#EEEEEE"></rect><path fill-rule="evenodd" clip-rule="evenodd" d="M64.4518 24.2458V49.4178L58.4925 43.4529L52.2337 49.4178L46.2882 43.4529L40.1319 49.4178V32.4242V24.2458H64.4518Z" stroke="#333333" stroke-width="1.96875"></path><path d="M14.0255 45.125V80.4777C14.0255 81.2025 14.6132 81.7902 15.338 81.7902H89.3047C90.0295 81.7902 90.6172 81.2025 90.6172 80.4776V72.6875M14.0255 39.875V25.6589C14.0255 24.9341 14.6132 24.3464 15.338 24.3464H26.939H32.6373H89.3047C90.0295 24.3464 90.6172 24.9341 90.6172 25.6589V58.25M90.6172 63.5V67.4375" stroke="#333333" stroke-width="1.96875"></path><circle cx="90.6071" cy="24.2458" r="8.53125" fill="white" stroke="white" stroke-width="3.9375"></circle><circle cx="90.6071" cy="24.2458" r="10.5" stroke="#333333" stroke-width="1.96875"></circle><path d="M86.1135 24.4334L88.9958 27.4334L95.1208 21.0584" stroke="#333333" stroke-width="1.96875"></path></svg>

<svg viewBox="0 0 105 105" fill="none" xmlns="http://www.w3.org/2000/svg"><circle cx="53" cy="53" r="45.54" fill="#EEE"/><path fill-rule="evenodd" clip-rule="evenodd" d="M15.338 81.79a1.313 1.313 0 0 1-1.313-1.312v-54.82c0-.724.588-1.312 1.313-1.312h73.967c.724 0 1.312.588 1.312 1.313v54.819c0 .725-.588 1.312-1.312 1.312H15.338Z" fill="#fff"/><mask id="a" fill="#fff"><path fill-rule="evenodd" clip-rule="evenodd" d="M64.452 49.418V24.246h-24.32v25.172l6.156-5.965 5.946 5.965 6.258-5.965 5.96 5.965Zm-42.95 22.201h16.245V61.197H21.502v10.422Z"/></mask><path fill-rule="evenodd" clip-rule="evenodd" d="M64.452 49.418V24.246h-24.32v25.172l6.156-5.965 5.946 5.965 6.258-5.965 5.96 5.965Zm-42.95 22.201h16.245V61.197H21.502v10.422Z" fill="#FFE600"/><path d="M64.452 24.246h3.937v-3.938h-3.937v3.938Zm0 25.172L61.666 52.2l6.723 6.73v-9.513h-3.937Zm-24.32-25.172v-3.938h-3.938v3.938h3.938Zm0 25.172h-3.938v9.297l6.678-6.47-2.74-2.827Zm6.156-5.965 2.789-2.78-2.74-2.75-2.789 2.702 2.74 2.828Zm5.946 5.965-2.79 2.78 2.719 2.727 2.787-2.657-2.716-2.85Zm6.258-5.965 2.786-2.783-2.718-2.72-2.784 2.652 2.716 2.85ZM37.748 71.619v3.938h3.937v-3.938h-3.937Zm-16.245 0h-3.937v3.938h3.937v-3.938Zm16.245-10.422h3.937v-3.938h-3.937v3.938Zm-16.245 0v-3.938h-3.937v3.938h3.937Zm39.012-36.951v25.172h7.875V24.246h-7.875Zm-20.382 3.937h24.32v-7.875h-24.32v7.875Zm3.937 4.241v-8.178h-7.875v8.178h7.875Zm0 16.994V32.424h-7.875v16.994h7.875Zm-.52-8.793-6.157 5.965 5.48 5.656 6.156-5.965-5.48-5.656Zm11.473 6.013-5.945-5.965-5.578 5.56 5.946 5.965 5.577-5.56Zm.754-6.035-6.259 5.965 5.433 5.7 6.259-5.965-5.433-5.7Zm11.461 6.032-5.959-5.965-5.571 5.566 5.96 5.965 5.57-5.566Zm-29.49 21.047H21.502v7.875h16.245v-7.875Zm-3.938-6.485v10.422h7.875V61.197H33.81Zm-12.307 3.937h16.245V57.26H21.502v7.875Zm3.938 6.485V61.197h-7.875v10.422h7.875Z" fill="#fff" mask="url(#a)"/><path stroke="#333" stroke-width="1.969" d="M37.747 71.62H21.502V61.197h16.245z"/><path fill="#EEE" d="M14.025 76.232h76.582v5.529H14.025z"/><path clip-rule="evenodd" d="M64.452 24.246v25.172l-5.96-5.965-6.258 5.965-5.946-5.965-6.156 5.965V24.246h24.32Z" stroke="#333" stroke-width="1.969"/><path d="M14.025 45.125v35.353c0 .725.588 1.312 1.313 1.312h73.967c.724 0 1.312-.588 1.312-1.312v-7.79M14.025 39.874V25.659c0-.725.588-1.313 1.313-1.313h73.967c.724 0 1.312.588 1.312 1.313V58.25m0 5.25v3.938" stroke="#333" stroke-width="1.969"/><circle cx="90.607" cy="24.246" r="8.531" fill="#fff" stroke="#fff" stroke-width="3.938"/><circle cx="90.607" cy="24.246" r="10.5" stroke="#333" stroke-width="1.969"/><path d="m86.114 24.433 2.882 3 6.125-6.375" stroke="#333" stroke-width="1.969"/></svg>
